public/images/ifos/blink.svg

<svg width="64" height="64" viewBox="0 0 64 64" fill="none" xmlns="http://www.w3.org/2000/svg">
<circle cx="32" cy="32.0001" r="32" fill="#0F1837"/>
<g clip-path="url(#clip0)">
<path d="M25.806 35.9021L22.2565 35.8614V26.7083C22.2565 26.4716 22.2099 26.2373 22.1193 26.0187C22.0287 25.8001 21.8959 25.6015 21.7285 25.4343C21.5612 25.267 21.3625 25.1343 21.1438 25.0439C20.9252 24.9534 20.6908 24.907 20.4542 24.9071C20.2175 24.9071 19.983 24.9538 19.7643 25.0444C19.5455 25.135 19.3468 25.2679 19.1794 25.4354C19.0121 25.6028 18.8793 25.8016 18.7888 26.0204C18.6983 26.2392 18.6518 26.4737 18.652 26.7105V37.4042C18.652 37.4448 18.652 37.4855 18.652 37.5251C18.652 37.5647 18.652 37.59 18.652 37.6241C18.6494 37.8608 18.6934 38.0956 18.7816 38.3153C18.8697 38.5349 19.0003 38.7351 19.1658 38.9043C19.3313 39.0735 19.5286 39.2084 19.7462 39.3014C19.9639 39.3944 20.1977 39.4435 20.4344 39.4461L25.7653 39.5066H25.7895C26.2675 39.5092 26.727 39.3219 27.0668 38.9857C27.4066 38.6496 27.599 38.1922 27.6017 37.7142C27.6043 37.2363 27.4169 36.7768 27.0808 36.437C26.7447 36.0971 26.2873 35.9047 25.8093 35.9021H25.806Z" fill="#C9A31E"/>
<path d="M47.4871 21.7303C47.3718 21.73 47.2584 21.7009 47.1572 21.6457C47.0703 21.5995 45.0317 20.4889 44.1399 19.9644C43.9916 19.8735 43.8702 19.7449 43.7881 19.5917C43.7059 19.4384 43.6661 19.2661 43.6726 19.0924C43.6726 18.7845 43.8034 18.3853 44.1509 18.1896C45.4704 17.4462 47.1429 16.5402 47.1594 16.5402C47.2396 16.4969 47.3276 16.4698 47.4183 16.4604C47.509 16.4511 47.6006 16.4597 47.688 16.4858C47.7753 16.5119 47.8567 16.5549 47.9274 16.6125C47.9981 16.67 48.0568 16.7409 48.1001 16.8211C48.1434 16.9013 48.1705 16.9893 48.1799 17.08C48.1892 17.1707 48.1806 17.2623 48.1545 17.3497C48.1284 17.437 48.0854 17.5184 48.0278 17.5891C47.9703 17.6598 47.8994 17.7185 47.8192 17.7618C47.8049 17.7695 46.5733 18.4337 45.3945 19.0891C46.3842 19.6477 47.8038 20.4229 47.8214 20.4317C47.9566 20.5054 48.0634 20.622 48.1251 20.7631C48.1867 20.9043 48.1996 21.0619 48.1619 21.2112C48.1241 21.3604 48.0377 21.4929 47.9163 21.5877C47.7949 21.6825 47.6455 21.7342 47.4915 21.7347L47.4871 21.7303Z" fill="white"/>
<path d="M38.4769 47.5469C37.0506 47.5493 35.6293 47.3802 34.2434 47.0433C30.5168 46.1306 28.3506 44.3064 28.2604 44.2294C28.0522 44.052 27.923 43.799 27.9012 43.5263C27.8795 43.2536 27.9669 42.9834 28.1444 42.7752C28.3219 42.567 28.5748 42.4378 28.8475 42.416C29.1202 42.3942 29.3904 42.4817 29.5986 42.6592C29.9175 42.9275 37.3465 49.0006 48.5658 42.5492C48.6833 42.4786 48.8137 42.4322 48.9494 42.4126C49.0851 42.393 49.2233 42.4006 49.356 42.4351C49.4887 42.4695 49.6132 42.5301 49.7223 42.6132C49.8313 42.6964 49.9226 42.8004 49.991 42.9192C50.0593 43.0381 50.1033 43.1694 50.1203 43.3054C50.1373 43.4415 50.127 43.5795 50.0901 43.7116C50.0531 43.8436 49.9902 43.9669 49.905 44.0743C49.8198 44.1818 49.714 44.2711 49.5939 44.3372C45.3373 46.7871 41.5448 47.5469 38.4769 47.5469Z" fill="white"/>
<path d="M31.4294 39.4924C30.9292 39.4921 30.4496 39.2934 30.0959 38.9398C29.7421 38.5863 29.5431 38.1068 29.5425 37.6066V26.7931C29.5425 26.2928 29.7411 25.813 30.0948 25.4592C30.4484 25.1053 30.9281 24.9064 31.4283 24.9061C31.9285 24.9061 32.4081 25.1048 32.7618 25.4585C33.1154 25.8121 33.3141 26.2918 33.3141 26.792V37.6055C33.3143 37.8531 33.2656 38.0984 33.171 38.3273C33.0764 38.5561 32.9376 38.7641 32.7626 38.9393C32.5875 39.1145 32.3797 39.2535 32.151 39.3485C31.9223 39.4434 31.6771 39.4923 31.4294 39.4924Z" fill="#C9A41E"/>
<path d="M46.4381 39.555C45.9376 39.555 45.4577 39.3562 45.1038 39.0023C44.7499 38.6484 44.5511 38.1685 44.5511 37.668V31.5179C44.5238 30.9274 44.38 30.3482 44.1278 29.8135C43.6978 28.9525 43.0282 28.5688 41.9385 28.5688H41.933C40.9433 28.5688 40.3495 28.9536 39.9537 29.8542C39.7361 30.3786 39.6108 30.9366 39.5831 31.5036V37.6614C39.5892 37.913 39.5449 38.1632 39.4528 38.3974C39.3608 38.6316 39.2228 38.845 39.047 39.025C38.8712 39.2051 38.6612 39.3482 38.4293 39.4459C38.1975 39.5436 37.9484 39.5939 37.6967 39.5939C37.4451 39.5939 37.196 39.5436 36.9641 39.4459C36.7322 39.3482 36.5222 39.2051 36.3465 39.025C36.1707 38.845 36.0327 38.6316 35.9407 38.3974C35.8486 38.1632 35.8043 37.913 35.8104 37.6614V31.5036C35.8104 28.8085 37.44 24.796 41.9286 24.796H41.9363C43.7022 24.796 45.2252 25.3854 46.3413 26.4993C48.2667 28.4236 48.3206 31.1968 48.3206 31.5069V37.6647C48.3212 37.9125 48.2729 38.1579 48.1786 38.387C48.0843 38.6161 47.9458 38.8244 47.771 38.9999C47.5962 39.1754 47.3885 39.3148 47.1597 39.41C46.931 39.5053 46.6858 39.5545 46.4381 39.555Z" fill="#C9A41E"/>
<path d="M54.7696 32.3559L57.9332 27.7717C58.0797 27.5667 58.184 27.3347 58.24 27.089C58.2959 26.8434 58.3024 26.589 58.259 26.3409C58.2157 26.0927 58.1233 25.8556 57.9874 25.6435C57.8514 25.4314 57.6746 25.2484 57.4672 25.1054C57.2598 24.9623 57.026 24.8619 56.7795 24.8102C56.5329 24.7584 56.2785 24.7562 56.0311 24.8038C55.7837 24.8514 55.5482 24.9477 55.3384 25.0872C55.1286 25.2268 54.9487 25.4067 54.8092 25.6164L50.8869 31.3003C50.8869 31.3003 50.8869 31.3091 50.8792 31.3135C50.8229 31.3994 50.7733 31.4895 50.7307 31.5829C50.7198 31.6071 50.7055 31.6313 50.6956 31.6566C50.6653 31.7352 50.64 31.8156 50.6197 31.8974C50.6098 31.9381 50.5955 31.9788 50.5878 32.0195C50.5767 32.0864 50.5693 32.154 50.5658 32.2218C50.5658 32.2779 50.5537 32.3317 50.5537 32.39C50.5537 32.4483 50.5625 32.5 50.568 32.5528C50.5725 32.6217 50.581 32.6904 50.5933 32.7584C50.6021 32.7991 50.6164 32.8376 50.6274 32.8771C50.6482 32.96 50.675 33.0412 50.7077 33.1202C50.7176 33.1444 50.7307 33.1663 50.7428 33.1894C50.7864 33.2838 50.8379 33.3743 50.8968 33.4599C50.8968 33.4599 50.8968 33.4687 50.9045 33.4731L54.6365 38.704C54.9368 39.091 55.375 39.347 55.8596 39.4184C56.3442 39.4897 56.8377 39.371 57.2367 39.087C57.6358 38.8029 57.9096 38.3756 58.0009 37.8943C58.0921 37.4131 57.9938 36.9152 57.7264 36.5048L54.7696 32.3559Z" fill="white"/>
<path d="M31.3174 21.4213C32.6164 21.4213 33.6695 20.3682 33.6695 19.0692C33.6695 17.7702 32.6164 16.7172 31.3174 16.7172C30.0184 16.7172 28.9653 17.7702 28.9653 19.0692C28.9653 20.3682 30.0184 21.4213 31.3174 21.4213Z" fill="white"/>
<path d="M13.773 31.464C13.773 31.464 15.7896 31.2836 15.7193 28.2641C15.6434 25.0104 11.819 24.874 11.819 24.874H7.59536C7.11128 24.8795 6.64887 25.0756 6.30841 25.4198C5.96795 25.764 5.77687 26.2285 5.77661 26.7126V37.8186C5.7769 38.3061 5.9707 38.7736 6.31543 39.1183C6.66016 39.4631 7.12763 39.6569 7.61516 39.6572C7.61516 39.6572 9.7473 39.6407 10.7809 39.6572C15.0342 39.7198 16.842 38.1056 16.9057 35.3929C16.986 31.7686 13.773 31.464 13.773 31.464ZM9.35474 27.7253C9.35474 27.7253 10.5357 27.7088 10.8942 27.7253C11.2527 27.7418 12.4941 27.8628 12.4424 29.2824C12.3908 30.7019 10.793 30.6338 10.793 30.6338H9.35474V27.7253ZM10.7919 36.7872H9.35474V33.5026C9.35474 33.5026 10.5357 33.4851 10.8942 33.5026C11.2527 33.5202 13.2858 33.3487 13.3342 35.1433C13.3837 36.8938 10.7919 36.7927 10.7919 36.7927V36.7872Z" fill="#C9A31E"/>
</g>
<defs>
<clipPath id="clip0">
<rect width="52.4975" height="31.0936" fill="white" transform="translate(5.77124 16.4534)"/>
</clipPath>
</defs>
</svg>

<svg xmlns="http://www.w3.org/2000/svg" width="64" height="64" fill="none"  xmlns:v="https://vecta.io/nano"><circle cx="32" cy="32" r="32" fill="#0f1837"/><g clip-path="url(#A)"><path d="M25.806 35.902l-3.55-.041v-9.153a1.8 1.8 0 0 0-.528-1.274 1.8 1.8 0 0 0-1.274-.527c-.237 0-.471.047-.69.137a1.8 1.8 0 0 0-.976.976 1.8 1.8 0 0 0-.137.69v10.914a1.8 1.8 0 0 0 .514 1.28c.165.169.363.304.58.397a1.8 1.8 0 0 0 .688.145l5.355.06a1.8 1.8 0 0 0 1.277-.521c.34-.336.532-.794.535-1.272a1.8 1.8 0 0 0-1.792-1.812h-.003z" fill="#c9a31e"/><g fill="#fff"><path d="M47.487 21.73a.68.68 0 0 1-.33-.085l-3.017-1.681a.98.98 0 0 1-.467-.872c0-.308.131-.707.478-.903l3.008-1.649a.71.71 0 0 1 .259-.08c.091-.01.182-.001.27.025a.67.67 0 0 1 .239.127c.07.058.129.128.173.209a.7.7 0 0 1 .08.259c.01.091.001.182-.025.27a.67.67 0 0 1-.127.239c-.058.07-.128.129-.209.173l-2.425 1.327 2.427 1.343a.7.7 0 0 1 .304.331c.062.141.074.299.037.448a.69.69 0 0 1-.246.377c-.122.095-.271.146-.425.147l-.004-.004zm-9.01 25.817c-1.426.002-2.848-.167-4.233-.504-3.727-.913-5.893-2.737-5.983-2.814a1.03 1.03 0 1 1 1.338-1.57c.319.268 7.748 6.341 18.967-.11a1.03 1.03 0 0 1 1.156.064 1.04 1.04 0 0 1 .269.306 1.02 1.02 0 0 1 .129.386 1.03 1.03 0 0 1-.526 1.032c-4.257 2.45-8.049 3.21-11.117 3.21z"/></g><g fill="#c9a41e"><path d="M31.429 39.492a1.89 1.89 0 0 1-1.887-1.886V26.793a1.89 1.89 0 0 1 .552-1.334c.353-.354.833-.553 1.334-.553a1.89 1.89 0 0 1 1.334.552c.354.353.552.833.552 1.334v10.813a1.9 1.9 0 0 1-.143.722 1.87 1.87 0 0 1-.408.612 1.89 1.89 0 0 1-.612.409c-.229.095-.474.144-.722.144zm15.009.063c-.5 0-.98-.199-1.334-.553s-.553-.834-.553-1.334v-6.15a4.48 4.48 0 0 0-.423-1.704c-.43-.861-1.1-1.245-2.189-1.245h-.005c-.99 0-1.584.385-1.979 1.285a4.93 4.93 0 0 0-.371 1.649v6.158c.006.252-.038.502-.13.736s-.23.448-.406.628-.386.323-.618.421a1.88 1.88 0 0 1-1.466 0c-.232-.098-.442-.241-.618-.421s-.314-.393-.406-.628a1.89 1.89 0 0 1-.13-.736v-6.158c0-2.695 1.63-6.708 6.118-6.708h.008c1.766 0 3.289.589 4.405 1.703 1.925 1.924 1.979 4.697 1.979 5.008v6.158a1.88 1.88 0 0 1-.142.722c-.094.229-.233.437-.408.613s-.383.315-.611.41a1.88 1.88 0 0 1-.722.145z"/></g><g fill="#fff"><path d="M54.77 32.356l3.164-4.584a1.9 1.9 0 0 0 .326-1.431 1.89 1.89 0 0 0-.272-.697 1.9 1.9 0 0 0-.52-.538 1.88 1.88 0 0 0-.688-.295c-.247-.051-.501-.054-.748-.006a1.9 1.9 0 0 0-1.222.813L50.887 31.3c-.064.099-.114.189-.156.283l-.035.074a2.04 2.04 0 0 0-.076.241l-.032.122a1.73 1.73 0 0 0-.022.202c0 .056-.012.11-.012.168s.009.11.014.163l.025.206c.009.041.023.079.034.119.021.083.048.164.08.243.01.024.023.046.035.069.044.094.095.185.154.27l3.74 5.244a1.9 1.9 0 0 0 2.6.383 1.9 1.9 0 0 0 .49-2.582l-2.957-4.149zM31.317 21.421c1.299 0 2.352-1.053 2.352-2.352s-1.053-2.352-2.352-2.352-2.352 1.053-2.352 2.352 1.053 2.352 2.352 2.352z"/></g><path d="M13.773 31.464s2.017-.18 1.946-3.2c-.076-3.254-3.9-3.39-3.9-3.39H7.595a1.84 1.84 0 0 0-1.819 1.839v11.106a1.84 1.84 0 0 0 1.839 1.839h3.166c4.253.063 6.061-1.552 6.125-4.264.08-3.624-3.133-3.929-3.133-3.929zm-4.418-3.739h1.539c.359.017 1.6.137 1.548 1.557s-1.649 1.351-1.649 1.351H9.355v-2.908zm1.437 9.062H9.355v-3.285h1.539c.359.018 2.392-.154 2.44 1.641.05 1.75-2.542 1.649-2.542 1.649v-.006z" fill="#c9a31e"/></g><defs><clipPath id="A"><path fill="#fff" transform="translate(5.771 16.453)" d="M0 0h52.498v31.094H0z"/></clipPath></defs></svg>
